X: 1695
T: Segâh Seyir
C: Erol Bingöl
O: Turkey
F: http://compmusic.upf.edu/node/140
N: segah--seyir--sofyan--1--erol_bingol
N: makam= segah
N: form= seyir
N: usul= sofyan = 4/4
M: 4/4
L: 1/16
K: C _1/4B _1/4e ^f 
Q: 1/4=60
%%MIDI tuningsystem comma53
B4 c4 B2c2 d2e2  | d3c dcB^A B8  | B2c2 d2e2 d4 e2f2  | \
w:   |   |   | 
g2ag feed d8  | 
w:   | 
d6e2 f2g2 a2_2/4b2  | c'4 _b2a2 g2f2 e2d2  | \
w:   |   | 
e4 d2c2 d4 c2B2  | ^A2B2 cdcB B8  | 
w:   |   | 
|


